X:54
T:Mr. Beveridge's Maggot
M: 3/2
L: 1/8
K: Gm clef=treble
P:A
|: "Gm"g4 "D"(^f3=e/f/) "Gm"g4 | "Gm"d2(cB) "D"(AB)c2 "GM"B2G2 |\
    "Bb"b4 "F"(a3g/a/) "Bb"b4 | "Bb"f2(ed) "F"cde2 "Bb"d2B2 :|
P:B
[|"Bb"d2 f4 f2 f4 | "F7"c2 e4 e2 e4 | \
      "Gm"B2 d4 d2 d2(cB) | "D"(AB)c2 "Gm"B2(AG) "D"^F2D2 |
   "D"d2 a4 a2 a2d2 | "Gm"b2a2 "D"g2^f2 "Gm"g4 |\
      "Bb"def2 Bcd2 "D"ABc2 | "Gm"B2G2 "D"G3^F "Gm"G4 |]

